lib/preview/nrk-logo-preview-nrk-sapmi.svg

<svg width="87" height="21" viewBox="0 0 87 21" fill="none" xmlns="http://www.w3.org/2000/svg">
<path d="M5.14984e-05 16.9993V5.00036H3.93724V16.9993H5.14984e-05ZM9.29386 6.91005L11.5581 16.9993H7.24922L4.54554 5.00036H6.96223C7.5164 4.99317 8.05411 5.18852 8.47455 5.54966C8.89567 5.89565 9.185 6.37597 9.29386 6.91005ZM12.1496 16.9993V5.00036H16.0868V16.9993H12.1496ZM19.0605 9.56337C18.6363 9.5675 18.2188 9.4565 17.8526 9.24223C17.4913 9.03339 17.1911 8.73323 16.9823 8.37187C16.7678 8.0056 16.6568 7.58803 16.661 7.16359C16.6562 6.74173 16.7673 6.32665 16.9823 5.96369C17.1934 5.60626 17.4932 5.30936 17.8526 5.10179C18.2189 4.88777 18.6363 4.77678 19.0605 4.78065C19.4822 4.77611 19.8972 4.8872 20.2603 5.10179C20.6161 5.31118 20.9127 5.60783 21.1221 5.96369C21.3369 6.32675 21.448 6.74176 21.4434 7.16359C21.4473 7.588 21.3363 8.00549 21.1221 8.37187C20.9149 8.73164 20.618 9.03155 20.2603 9.24223C19.8971 9.45724 19.4819 9.56836 19.06 9.56337H19.0605ZM22.0517 16.9993V5.00036H25.9892V16.9993H22.0517ZM30.9738 11.5575C30.9849 11.5691 31.0693 11.7072 31.2272 11.9715C31.3851 12.2359 31.5907 12.574 31.844 12.9856C32.0974 13.397 32.3649 13.8335 32.6464 14.2953C32.9278 14.757 33.1927 15.1936 33.4409 15.605C33.6881 16.0165 33.9698 16.4812 34.2858 16.9993H29.9599C29.6893 16.5599 29.4442 16.1627 29.2245 15.8078C29.0049 15.4529 28.7713 15.0699 28.5239 14.6586C28.2759 14.2478 28.0306 13.8478 27.7883 13.4587C27.5459 13.0697 27.3375 12.7289 27.1633 12.4363C26.9883 12.1436 26.8671 11.9464 26.7997 11.8448C26.6326 11.5927 26.5337 11.3016 26.5127 10.9998C26.5295 10.7102 26.6227 10.4302 26.7828 10.1884C26.8504 10.0757 26.9743 9.8757 27.1546 9.5884C27.3348 9.3011 27.546 8.96032 27.7883 8.56599C28.0305 8.17166 28.2757 7.76887 28.5239 7.35764C28.7721 6.94641 29.0056 6.5605 29.2245 6.19997C29.4446 5.83982 29.6897 5.43985 29.9599 5.00008H34.2858L30.9397 10.4588C30.8361 10.6208 30.7778 10.8076 30.7707 10.9998C30.7818 11.2016 30.8523 11.3956 30.9732 11.5575H30.9738Z" fill="white"/>
<path d="M46.1479 11.3737C45.9042 11.1221 45.6214 10.9127 45.3108 10.7539C44.9852 10.5868 44.6463 10.4476 44.2978 10.3379C43.9403 10.2248 43.5719 10.1284 43.1928 10.049C42.9022 9.9813 42.6316 9.91348 42.3808 9.84557C42.1503 9.78525 41.926 9.70272 41.711 9.5991C41.5262 9.51039 41.3545 9.39613 41.2007 9.25954C41.0558 9.13002 40.9437 8.96705 40.8739 8.7844C40.7966 8.56961 40.7597 8.34205 40.7651 8.11347C40.7613 7.87679 40.7981 7.64125 40.8739 7.41736C40.9426 7.21985 41.0575 7.04214 41.2087 6.89949C41.3655 6.75393 41.5435 6.63379 41.7365 6.54325C41.9569 6.44134 42.1909 6.37267 42.431 6.33948C42.7167 6.29821 43.005 6.27836 43.2936 6.28006C43.5563 6.28058 43.8188 6.29467 44.0801 6.32224C44.3446 6.35023 44.6074 6.39281 44.8674 6.44984C45.1197 6.50538 45.3685 6.57625 45.6124 6.66207C45.8408 6.74172 46.0621 6.84105 46.2738 6.95894L46.5082 5.46509C46.2701 5.33913 46.0206 5.2368 45.7631 5.15948C45.5006 5.08044 45.2355 5.01241 44.9678 4.95544C44.6967 4.89863 44.4229 4.85623 44.1474 4.82839C43.8683 4.80009 43.5838 4.78593 43.2936 4.78593C42.7015 4.77945 42.1109 4.84779 41.5355 4.98939C41.0456 5.10935 40.5827 5.32265 40.1713 5.61791C39.7921 5.89366 39.487 6.26127 39.2839 6.68726C39.0672 7.16602 38.9612 7.6887 38.9742 8.21534C38.9646 8.6229 39.0299 9.02872 39.1667 9.41205C39.2867 9.73345 39.472 10.0257 39.7106 10.2698C39.9467 10.5086 40.2178 10.709 40.5143 10.864C40.8286 11.0283 41.1564 11.1647 41.494 11.2718C41.8456 11.385 42.2055 11.4812 42.5739 11.5604C42.8752 11.6282 43.1543 11.6989 43.411 11.7727C43.6498 11.8393 43.8822 11.9274 44.1056 12.0358C44.2977 12.1278 44.4755 12.248 44.6333 12.3924C44.7828 12.5348 44.8998 12.7087 44.9762 12.9017C45.0651 13.1343 45.1079 13.3824 45.102 13.6318C45.1065 13.897 45.0669 14.161 44.9849 14.4128C44.9114 14.6306 44.7977 14.8323 44.65 15.0071C44.5015 15.1794 44.3189 15.3181 44.1142 15.4143C43.8829 15.5224 43.6377 15.5968 43.3859 15.6353C43.0785 15.6831 42.7679 15.7058 42.457 15.7032C42.1547 15.7025 41.8527 15.6826 41.5528 15.6438C41.2403 15.6042 40.9277 15.5503 40.6149 15.4822C40.307 15.4157 40.0025 15.3335 39.7027 15.236C39.4066 15.1404 39.1247 15.0414 38.8572 14.9392L39.0749 16.6201C39.3603 16.7281 39.6509 16.8215 39.9455 16.8999C40.2129 16.9711 40.4839 17.0278 40.7573 17.0697C41.0196 17.1091 41.282 17.1403 41.5445 17.1631C41.807 17.1859 42.0719 17.1972 42.3394 17.197C42.9388 17.2008 43.5369 17.1382 44.1229 17.0103C44.6415 16.8999 45.1354 16.6927 45.5792 16.3991C45.9935 16.1211 46.3285 15.7375 46.5506 15.2869C46.795 14.7532 46.9125 14.1687 46.8935 13.5806C46.9027 13.1424 46.8377 12.7058 46.7013 12.2899C46.5842 11.9476 46.3955 11.635 46.1479 11.3737Z" fill="white"/>
<path d="M56.1685 15.9409C56.0461 15.9523 55.9228 15.9335 55.8091 15.8862C55.6953 15.8389 55.5945 15.7645 55.5152 15.6692C55.36 15.3972 55.2955 15.0816 55.3313 14.7694L55.3645 11.2718C55.3682 10.9051 55.3232 10.5396 55.2306 10.1851C55.1494 9.87414 55.0133 9.58065 54.8288 9.31894C54.6425 9.06319 54.406 8.84931 54.1342 8.69073C53.8182 8.50904 53.4766 8.37743 53.1213 8.3005C52.6868 8.20535 52.2431 8.15979 51.7986 8.16468C51.4459 8.16441 51.0935 8.187 50.7436 8.23231C50.413 8.27471 50.0858 8.34002 49.7641 8.42783C49.4658 8.50981 49.1722 8.60902 48.8851 8.72497L48.6842 10.1681C48.9632 10.0666 49.2286 9.98165 49.4795 9.91346C49.7303 9.84526 49.9733 9.78895 50.2077 9.74368C50.4375 9.69924 50.6696 9.66816 50.9029 9.65058C51.1314 9.63361 51.3573 9.625 51.5807 9.62481C51.9221 9.61748 52.2629 9.65748 52.5936 9.74368C52.835 9.80499 53.057 9.92781 53.2385 10.1005C53.4001 10.2684 53.5155 10.4762 53.5733 10.7033C53.6448 10.9832 53.6786 11.2716 53.6738 11.5607L53.6718 11.9866L51.7152 12.121C51.0458 12.1399 50.3864 12.2897 49.773 12.5621C49.314 12.7658 48.9176 13.0914 48.6258 13.5045C48.3783 13.872 48.2469 14.3073 48.2492 14.7524C48.246 15.1701 48.3468 15.5819 48.5424 15.9497C48.7471 16.3273 49.0552 16.6367 49.4295 16.8407C49.8863 17.0817 50.3967 17.1987 50.9112 17.1803C51.3933 17.1915 51.8732 17.111 52.326 16.9429C52.7175 16.7876 53.0757 16.557 53.3808 16.2638C53.4968 16.1512 53.6068 16.0325 53.7103 15.9081C53.7428 16.0839 53.8042 16.253 53.8918 16.4084C54.0409 16.6683 54.2702 16.8712 54.5444 16.9856C54.8476 17.1091 55.1721 17.1698 55.4988 17.1639C55.5995 17.1639 55.6969 17.1608 55.7917 17.1554C55.8849 17.1498 55.9774 17.1355 56.068 17.1127C56.1573 17.0901 56.2383 17.0705 56.3108 17.0533C56.3764 17.0386 56.4408 17.0187 56.5033 16.9938L56.6875 15.8566C56.5952 15.8886 56.4999 15.9114 56.4032 15.9245C56.3254 15.9348 56.247 15.9403 56.1685 15.9409ZM53.3805 15.1768C53.199 15.3224 53.0025 15.4477 52.7945 15.5507C52.5873 15.6527 52.3678 15.7269 52.1416 15.7714C51.9071 15.8171 51.6688 15.8397 51.43 15.839C51.1572 15.8471 50.8859 15.7949 50.635 15.6862C50.4306 15.5964 50.2581 15.4455 50.1408 15.2535C50.0248 15.05 49.9669 14.8178 49.9734 14.5829C49.9572 14.2997 50.0338 14.019 50.1913 13.7846C50.3735 13.5689 50.6204 13.4198 50.8943 13.3601C51.322 13.2582 51.7609 13.2126 52.2002 13.2246H53.6663L53.659 14.9097C53.5738 15.0065 53.4806 15.096 53.3805 15.1768Z" fill="white"/>
<path d="M54.4437 4.12378H52.6358L51.2126 7.16295H52.5188L54.4437 4.12378Z" fill="white"/>
<path d="M64.7154 8.69948C64.1145 8.3264 63.4188 8.14043 62.7146 8.16465C62.2967 8.16676 61.8806 8.22083 61.4757 8.32566C61.0381 8.43866 60.6162 8.60703 60.22 8.82681C60.1413 8.87011 60.0634 8.91821 59.9853 8.96688V8.18161L58.2778 8.4533V20.5758H59.9853V16.7745C59.9967 16.7793 60.0074 16.7847 60.0191 16.7898C60.3285 16.9199 60.6514 17.0139 60.9818 17.0699C61.3719 17.1352 61.7668 17.1664 62.1621 17.1633C62.9159 17.1765 63.6592 16.9828 64.3133 16.6027C64.9558 16.2166 65.478 15.6548 65.8201 14.9816C66.2153 14.1788 66.4079 13.2891 66.3807 12.3923C66.3966 11.634 66.2511 10.8812 65.9541 10.1851C65.6922 9.57846 65.2618 9.06224 64.7154 8.69948ZM64.2717 14.3788C64.0706 14.8297 63.7335 15.2041 63.309 15.4482C62.8372 15.6989 62.3095 15.8218 61.7771 15.805C61.522 15.8052 61.2672 15.7852 61.0152 15.7453C60.7508 15.7026 60.4904 15.6374 60.2367 15.5503C60.1564 15.5221 60.0693 15.4898 59.9856 15.4587V10.1005C60.0079 10.09 60.0308 10.0764 60.0528 10.0663C60.2984 9.95306 60.5272 9.85675 60.7393 9.77733C60.9401 9.70125 61.1475 9.64442 61.3588 9.60755C61.5467 9.57474 61.737 9.55769 61.9277 9.5566C62.444 9.53922 62.9563 9.65304 63.4181 9.8877C63.8217 10.1106 64.1378 10.467 64.3136 10.8976C64.5265 11.4487 64.6264 12.038 64.6069 12.6295C64.6246 13.2306 64.5102 13.8282 64.2717 14.3788Z" fill="white"/>
<path d="M80.0262 8.52123C79.5697 8.26986 79.0552 8.14676 78.5361 8.16468C78.0855 8.16345 77.638 8.24097 77.2134 8.39387C76.7821 8.55051 76.3759 8.77069 76.0079 9.04729C75.7994 9.20409 75.601 9.3742 75.4138 9.55663C75.2423 9.13155 74.9397 8.77418 74.5513 8.53792C74.0891 8.28551 73.569 8.16253 73.0444 8.18164C72.5967 8.18172 72.1523 8.25916 71.7301 8.41059C71.2969 8.56525 70.8881 8.78263 70.5163 9.05603C70.396 9.14375 70.2794 9.23911 70.1647 9.339V8.18278L68.4569 8.43746V17.0117H70.1647V10.5516C70.3658 10.4179 70.5756 10.298 70.7925 10.1928C71.0581 10.0653 71.3358 9.96563 71.6213 9.89536C71.8843 9.82967 72.1541 9.79557 72.425 9.79376C72.6737 9.78604 72.9214 9.82933 73.1532 9.92109C73.3451 10.0035 73.5145 10.1315 73.6472 10.2944C73.7926 10.4837 73.8929 10.7046 73.9402 10.9398C74.0055 11.2436 74.0364 11.554 74.0323 11.8649V17.0097H75.74V11.5083C75.7412 11.1835 75.7196 10.8591 75.6753 10.5374C75.8689 10.4086 76.0694 10.2907 76.2758 10.1843C76.5368 10.0508 76.8121 9.94831 77.0962 9.87867C77.3647 9.81183 77.6401 9.77751 77.9166 9.77649C78.1625 9.77053 78.4072 9.81392 78.6366 9.90413C78.8318 9.98472 79.0043 10.113 79.1388 10.2776C79.2845 10.4668 79.3848 10.6877 79.4318 10.9228C79.4971 11.2267 79.528 11.5372 79.5239 11.8482V17.0097H81.2317V11.4916C81.2532 10.8495 81.1509 10.2093 80.9303 9.60699C80.7565 9.15312 80.4383 8.77105 80.0262 8.52123Z" fill="white"/>
<path d="M83.7598 17.0106H85.4676V8.18165L83.7598 8.43634V17.0106Z" fill="white"/>
<path d="M85.635 5.04883C85.5356 4.87468 85.3945 4.7287 85.2248 4.62437C85.051 4.51673 84.8509 4.4609 84.6472 4.46333C84.441 4.46157 84.2383 4.5173 84.0612 4.62437C83.8866 4.72802 83.7399 4.87383 83.6343 5.04883C83.528 5.22517 83.4729 5.42824 83.4752 5.63486C83.4735 5.84398 83.5285 6.04955 83.6343 6.2291C83.7365 6.40685 83.8839 6.55346 84.0612 6.65357C84.24 6.75564 84.4421 6.80834 84.6472 6.80639C84.8498 6.80903 85.0493 6.75623 85.2248 6.65357C85.3972 6.55269 85.539 6.4059 85.635 6.2291C85.7357 6.04781 85.7876 5.8429 85.7857 5.63486C85.7882 5.42934 85.7361 5.22696 85.635 5.04883Z" fill="white"/>
</svg>

<svg xmlns="http://www.w3.org/2000/svg" viewBox="0 0 87 21"><path fill="#fff" d="M0 17V5h3.937v12H0ZM9.294 6.91 11.558 17H7.25L4.546 5h2.416a2.276 2.276 0 0 1 1.513.55c.42.346.71.826.819 1.36ZM12.15 17V5h3.937v12H12.15Zm6.91-7.437a2.382 2.382 0 0 1-2.4-2.4 2.303 2.303 0 0 1 .322-1.2 2.412 2.412 0 0 1 3.278-.861c.356.21.653.506.862.862.215.363.326.778.321 1.2a2.4 2.4 0 0 1-1.183 2.079 2.303 2.303 0 0 1-1.2.32ZM22.053 17V5h3.937v12h-3.937Zm8.922-5.441c.01.011.095.15.253.414s.364.602.617 1.014a331.712 331.712 0 0 1 1.597 2.619c.247.412.529.876.845 1.394H29.96c-.27-.44-.516-.836-.736-1.191-.22-.355-.453-.738-.7-1.15-.248-.41-.493-.81-.736-1.2a60.19 60.19 0 0 1-.625-1.022 18.04 18.04 0 0 0-.363-.591 1.75 1.75 0 0 1-.287-.845c.016-.29.11-.57.27-.812.067-.112.191-.312.372-.6a182.106 182.106 0 0 0 1.37-2.23c.247-.412.48-.798.7-1.158L29.96 5h4.326L30.94 10.46a1.078 1.078 0 0 0-.17.54c.012.203.082.397.203.558ZM46.148 11.374a3.183 3.183 0 0 0-.837-.62 6.48 6.48 0 0 0-1.013-.416c-.358-.113-.726-.21-1.105-.289-.29-.068-.561-.136-.812-.203a3.7 3.7 0 0 1-.67-.247 2.206 2.206 0 0 1-.51-.34 1.222 1.222 0 0 1-.327-.475 1.852 1.852 0 0 1-.109-.67 2.068 2.068 0 0 1 .109-.697c.069-.197.183-.375.335-.518.156-.145.334-.265.527-.356.22-.102.455-.17.695-.204.286-.04.574-.06.863-.059a7.221 7.221 0 0 1 1.574.17c.252.055.5.126.744.212.229.08.45.18.662.297l.234-1.494a4.138 4.138 0 0 0-.745-.306 9.917 9.917 0 0 0-.795-.204 7.846 7.846 0 0 0-.82-.127 8.458 8.458 0 0 0-.854-.042 7.034 7.034 0 0 0-1.758.203c-.49.12-.953.334-1.365.629-.379.276-.684.643-.887 1.07a3.498 3.498 0 0 0-.31 1.527c-.01.408.056.814.193 1.197.12.321.305.614.544.858.236.239.507.439.803.594.315.164.642.3.98.408.352.113.712.21 1.08.288.301.068.58.139.837.213.239.066.471.154.695.263.192.092.37.212.527.356.15.143.267.317.343.51.09.232.132.48.126.73.005.265-.035.529-.117.78-.074.219-.187.42-.335.595a1.614 1.614 0 0 1-.536.407 2.675 2.675 0 0 1-.728.221c-.308.048-.618.07-.929.068-.302 0-.604-.02-.904-.06-.313-.039-.625-.093-.938-.16a9.294 9.294 0 0 1-.912-.247 17.043 17.043 0 0 1-.846-.297l.218 1.681c.285.108.576.201.87.28.268.071.539.128.812.17.263.04.525.07.788.093.262.023.527.034.794.034.6.004 1.198-.059 1.784-.187a4.24 4.24 0 0 0 1.456-.61c.414-.279.75-.662.972-1.113a3.805 3.805 0 0 0 .343-1.706 3.881 3.881 0 0 0-.193-1.291 2.515 2.515 0 0 0-.553-.916ZM56.169 15.94a.754.754 0 0 1-.654-.27 1.477 1.477 0 0 1-.184-.9l.033-3.498a4.135 4.135 0 0 0-.133-1.087 2.677 2.677 0 0 0-.402-.866 2.283 2.283 0 0 0-.695-.628 3.531 3.531 0 0 0-1.013-.39 5.88 5.88 0 0 0-1.322-.136c-.353 0-.706.022-1.055.067-.331.043-.658.108-.98.196a8.03 8.03 0 0 0-.879.297l-.2 1.443a10.032 10.032 0 0 1 1.523-.424 6.06 6.06 0 0 1 .695-.093c.228-.017.454-.026.678-.026a3.7 3.7 0 0 1 1.013.119c.241.061.463.184.645.357.161.167.277.375.334.602.072.28.106.569.1.858l-.001.426-1.957.134a5.142 5.142 0 0 0-1.942.441c-.459.204-.855.53-1.147.943a2.214 2.214 0 0 0-.377 1.247c-.003.418.098.83.293 1.198.205.377.513.687.887.89.457.242.968.359 1.482.34a3.81 3.81 0 0 0 1.415-.237c.392-.155.75-.386 1.055-.68.116-.112.226-.23.33-.355.032.176.093.345.18.5.15.26.38.463.653.578.304.123.628.184.955.178.1 0 .198-.003.293-.009.093-.005.185-.02.276-.042l.243-.06c.065-.014.13-.034.192-.06l.184-1.136a1.471 1.471 0 0 1-.284.068 1.9 1.9 0 0 1-.234.016Zm-2.788-.763a3.22 3.22 0 0 1-.587.374 2.626 2.626 0 0 1-.652.22 3.664 3.664 0 0 1-.712.068 1.86 1.86 0 0 1-.795-.153 1.096 1.096 0 0 1-.494-.432 1.283 1.283 0 0 1-.168-.671c-.016-.283.06-.564.218-.798.182-.216.43-.365.703-.425a5.04 5.04 0 0 1 1.306-.135h1.466l-.007 1.685a2.275 2.275 0 0 1-.279.267ZM54.444 4.124h-1.808l-1.423 3.039h1.306l1.925-3.04ZM64.715 8.7a3.56 3.56 0 0 0-2-.535 5.044 5.044 0 0 0-1.24.16 5.342 5.342 0 0 0-1.49.642v-.785l-1.707.271v12.123h1.707v-3.802l.034.016c.31.13.632.224.963.28.39.065.785.096 1.18.093a4.136 4.136 0 0 0 2.151-.56 4.008 4.008 0 0 0 1.507-1.621 5.488 5.488 0 0 0 .56-2.59 5.34 5.34 0 0 0-.426-2.207A3.399 3.399 0 0 0 64.715 8.7Zm-.443 5.679c-.201.45-.539.825-.963 1.07-.472.25-1 .373-1.532.356a4.71 4.71 0 0 1-1.791-.346V10.1c.022-.011.045-.025.067-.035.245-.113.474-.21.686-.289a3.396 3.396 0 0 1 1.189-.22 3.061 3.061 0 0 1 1.49.33c.404.224.72.58.896 1.01.213.552.312 1.141.293 1.732a4.099 4.099 0 0 1-.335 1.75ZM80.026 8.521a2.882 2.882 0 0 0-1.49-.356 3.872 3.872 0 0 0-1.323.229 4.646 4.646 0 0 0-1.205.653 6.132 6.132 0 0 0-.594.51 2.12 2.12 0 0 0-.863-1.02 2.921 2.921 0 0 0-1.507-.355c-.447 0-.892.077-1.314.229a4.738 4.738 0 0 0-1.565.928V8.183l-1.708.254v8.575h1.708v-6.46c.2-.134.41-.254.627-.36.266-.127.544-.226.83-.297.262-.065.532-.1.803-.101.249-.008.496.035.728.127.192.083.361.21.494.373.146.19.246.41.293.646.066.304.096.614.092.925v5.145h1.708v-5.502c.001-.324-.02-.649-.065-.97.194-.13.394-.247.6-.354.262-.133.537-.236.821-.305.269-.067.544-.101.82-.103.246-.005.491.038.72.128.196.08.368.209.503.374.145.189.246.41.293.645.065.304.096.614.092.925v5.162h1.708v-5.518a4.995 4.995 0 0 0-.302-1.885 2.18 2.18 0 0 0-.904-1.086ZM83.76 17.01h1.708V8.183l-1.708.254v8.575ZM85.635 5.049a1.19 1.19 0 0 0-.41-.425 1.072 1.072 0 0 0-.578-.16 1.114 1.114 0 0 0-.586.16c-.174.104-.321.25-.427.425-.106.176-.161.38-.159.586-.001.209.053.415.16.594a1.16 1.16 0 0 0 1.013.577 1.099 1.099 0 0 0 .988-.577c.1-.181.152-.386.15-.594a1.159 1.159 0 0 0-.151-.586Z"/></svg>
